assets/img/braze_icons/database-02.svg

<svg fill="none" height="24" viewBox="0 0 24 24" width="24" xmlns="http://www.w3.org/2000/svg"><g fill="#801ed7"><path clip-rule="evenodd" d="m22 7v-2c0-.85195-.5189-1.50441-1.0883-1.95315-.5807-.45762-1.3589-.826-2.2315-1.11685-1.7556-.5852-4.1173-.93-6.6802-.93-2.56285 0-4.92459.3448-6.68019.93-.87257.29085-1.65085.65923-2.23152 1.11685-.5694.44874-1.08829 1.1012-1.08829 1.95315v2c0 .84938.51319 1.50204 1.08206 1.95282.57885.45869 1.35506.82737 2.22627 1.11818 1.75276.5852 4.11491.929 6.69167.929 2.5768 0 4.9389-.3438 6.6917-.929.8712-.29081 1.6474-.65949 2.2262-1.11818.5689-.45078 1.0821-1.10344 1.0821-1.95282zm-18-1.99973s.00018.00557.00305.01502c.0034.01115.01178.03316.03202.06614.04245.06914.12901.1731.29117.30089.33018.26021.86992.53828 1.62603.79032 1.50175.50058 3.64002.82736 6.04773.82736 2.4077 0 4.546-.32678 6.0477-.82736.7561-.25204 1.2959-.53011 1.6261-.79032.1621-.12779.2487-.23175.2911-.30089.0203-.03298.0286-.05499.032-.06614.003-.00958.0031-.01529.0031-.01529s.0001-.00494-.0031-.01529c-.0034-.01115-.0117-.03316-.032-.06614-.0424-.06914-.129-.1731-.2911-.30089-.3302-.26021-.87-.53828-1.6261-.79032-1.5017-.50058-3.64-.82736-6.0477-.82736-2.40771 0-4.54598.32678-6.04773.82736-.75611.25204-1.29585.53011-1.62603.79032-.16216.12779-.24872.23175-.29117.30089-.02024.03298-.02862.05499-.03202.06614-.00307.01008-.00305.01556-.00305.01556z" fill-rule="evenodd"/><path d="m21.5917 10.5c-.1181 0-.2294.0521-.3119.1365-.1121.1147-.2313.2202-.353.3166-.5794.4586-1.3564.8273-2.2285 1.1182-1.7545.5851-4.119.9289-6.6983.9289-2.57935 0-4.94386-.3438-6.69837-.9289-.87208-.2909-1.64907-.6596-2.2285-1.1182-.12167-.0964-.2408-.2019-.35292-.3166-.08252-.0844-.19383-.1365-.31189-.1365-.22551 0-.40832.1828-.40832.4083v2.0917c0 .8494.51319 1.502 1.08206 1.9528.57885.4587 1.35506.8274 2.22627 1.1182 1.75276.5852 4.11491.929 6.69167.929 2.5768 0 4.9389-.3438 6.6917-.929.8712-.2908 1.6474-.6595 2.2262-1.1182.5689-.4508 1.0821-1.1034 1.0821-1.9528v-2.0917c0-.2255-.1828-.4083-.4083-.4083z"/><path d="m21.5917 16.5c-.1181 0-.2294.0521-.3119.1365-.1121.1147-.2313.2202-.353.3166-.5794.4586-1.3564.8273-2.2285 1.1182-1.7545.5851-4.119.9289-6.6983.9289-2.57935 0-4.94386-.3438-6.69837-.9289-.87208-.2909-1.64907-.6596-2.2285-1.1182-.12167-.0964-.2408-.2019-.35292-.3166-.08252-.0844-.19383-.1365-.31189-.1365-.22551 0-.40832.1828-.40832.4083v2.0917c0 .8494.51319 1.502 1.08206 1.9528.57885.4587 1.35506.8274 2.22627 1.1182 1.75276.5852 4.11491.929 6.69167.929 2.5768 0 4.9389-.3438 6.6917-.929.8712-.2908 1.6474-.6595 2.2262-1.1182.5689-.4508 1.0821-1.1034 1.0821-1.9528v-2.0917c0-.2255-.1828-.4083-.4083-.4083z"/></g></svg>

<svg width="24" height="24" viewBox="0 0 24 24" fill="none" xmlns="http://www.w3.org/2000/svg">
<path fill-rule="evenodd" clip-rule="evenodd" d="M22 7V5C22 4.14805 21.4811 3.49559 20.9117 3.04685C20.331 2.58923 19.5528 2.22085 18.6802 1.93C16.9246 1.3448 14.5629 1 12 1C9.43715 1 7.07541 1.3448 5.31981 1.93C4.44724 2.22085 3.66896 2.58923 3.08829 3.04685C2.51889 3.49559 2 4.14805 2 5V7C2 7.84938 2.51319 8.50204 3.08206 8.95282C3.66091 9.41151 4.43712 9.78019 5.30833 10.071C7.06109 10.6562 9.42324 11 12 11C14.5768 11 16.9389 10.6562 18.6917 10.071C19.5629 9.78019 20.3391 9.41151 20.9179 8.95282C21.4868 8.50204 22 7.84938 22 7ZM4 5.00027C4 5.00027 4.00018 5.00584 4.00305 5.01529C4.00645 5.02644 4.01483 5.04845 4.03507 5.08143C4.07752 5.15057 4.16408 5.25453 4.32624 5.38232C4.65642 5.64253 5.19616 5.9206 5.95227 6.17264C7.45402 6.67322 9.59229 7 12 7C14.4077 7 16.546 6.67322 18.0477 6.17264C18.8038 5.9206 19.3436 5.64253 19.6738 5.38232C19.8359 5.25453 19.9225 5.15057 19.9649 5.08143C19.9852 5.04845 19.9935 5.02644 19.9969 5.01529C19.9999 5.00571 20 5 20 5C20 5 20.0001 4.99506 19.9969 4.98471C19.9935 4.97356 19.9852 4.95155 19.9649 4.91857C19.9225 4.84943 19.8359 4.74547 19.6738 4.61768C19.3436 4.35747 18.8038 4.0794 18.0477 3.82736C16.546 3.32678 14.4077 3 12 3C9.59229 3 7.45402 3.32678 5.95227 3.82736C5.19616 4.0794 4.65642 4.35747 4.32624 4.61768C4.16408 4.74547 4.07752 4.84943 4.03507 4.91857C4.01483 4.95155 4.00645 4.97356 4.00305 4.98471C3.99998 4.99479 4 5.00027 4 5.00027Z" fill="#801ED7"/>
<path d="M21.5917 10.5C21.4736 10.5 21.3623 10.5521 21.2798 10.6365C21.1677 10.7512 21.0485 10.8567 20.9268 10.9531C20.3474 11.4117 19.5704 11.7804 18.6983 12.0713C16.9438 12.6564 14.5793 13.0002 12 13.0002C9.42065 13.0002 7.05614 12.6564 5.30163 12.0713C4.42955 11.7804 3.65256 11.4117 3.07313 10.9531C2.95146 10.8567 2.83233 10.7512 2.72021 10.6365C2.63769 10.5521 2.52638 10.5 2.40832 10.5C2.18281 10.5 2 10.6828 2 10.9083V13C2 13.8494 2.51319 14.502 3.08206 14.9528C3.66091 15.4115 4.43712 15.7802 5.30833 16.071C7.06109 16.6562 9.42324 17 12 17C14.5768 17 16.9389 16.6562 18.6917 16.071C19.5629 15.7802 20.3391 15.4115 20.9179 14.9528C21.4868 14.502 22 13.8494 22 13V10.9083C22 10.6828 21.8172 10.5 21.5917 10.5Z" fill="#801ED7"/>
<path d="M21.5917 16.5C21.4736 16.5 21.3623 16.5521 21.2798 16.6365C21.1677 16.7512 21.0485 16.8567 20.9268 16.9531C20.3474 17.4117 19.5704 17.7804 18.6983 18.0713C16.9438 18.6564 14.5793 19.0002 12 19.0002C9.42065 19.0002 7.05614 18.6564 5.30163 18.0713C4.42955 17.7804 3.65256 17.4117 3.07313 16.9531C2.95146 16.8567 2.83233 16.7512 2.72021 16.6365C2.63769 16.5521 2.52638 16.5 2.40832 16.5C2.18281 16.5 2 16.6828 2 16.9083V19C2 19.8494 2.51319 20.502 3.08206 20.9528C3.66091 21.4115 4.43712 21.7802 5.30833 22.071C7.06109 22.6562 9.42324 23 12 23C14.5768 23 16.9389 22.6562 18.6917 22.071C19.5629 21.7802 20.3391 21.4115 20.9179 20.9528C21.4868 20.502 22 19.8494 22 19V16.9083C22 16.6828 21.8172 16.5 21.5917 16.5Z" fill="#801ED7"/>
</svg>
